icons/lines/volume-cross.svg

<svg xmlns="http://www.w3.org/2000/svg" width="24" height="24" viewBox="0 0 24 24" fill="none" stroke="currentColor" stroke-width="2" stroke-linecap="round" stroke-linejoin="round" >
  <path d="M2 10.1595V14.1595C2 16.1595 3 17.1595 5 17.1595H6.43C6.8 17.1595 7.17 17.2695 7.49 17.4595L10.41 19.2895C12.93 20.8695 15 19.7195 15 16.7495V7.56946C15 4.58946 12.93 3.44946 10.41 5.02946L7.49 6.85946C7.17 7.04946 6.8 7.15946 6.43 7.15946H5C3 7.15946 2 8.15946 2 10.1595Z"/>
  <path d="M22 14.1195L18.04 10.1595" stroke-miterlimit="10"/>
  <path d="M21.96 10.1995L18 14.1595" stroke-miterlimit="10"/>
  </svg>

<svg xmlns="http://www.w3.org/2000/svg" width="24" height="24" viewBox="0 0 24 24" fill="none" stroke="currentColor" stroke-width="2" stroke-linecap="round" stroke-linejoin="round">
  <path d="M2 14.16q0 3 3 3h1.43a2 2 0 0 1 1.06.3l2.92 1.83c2.52 1.58 4.59.43 4.59-2.54V7.57c0-2.98-2.07-4.12-4.59-2.54L7.49 6.86a2 2 0 0 1-1.06.3H5q-3 0-3 3z" />
  <path d="M21.96 10.2 18 14.16" />
  <path d="m22 14.12-3.96-3.96" />
</svg>
